dist/uploads/logo.svg

<svg width="103" height="19" viewBox="0 0 103 19" fill="none" xmlns="http://www.w3.org/2000/svg">
<path d="M10.3477 0C10.5742 0.320312 10.6875 0.8125 10.6875 1.47656C10.6875 2.13281 10.6641 2.66797 10.6172 3.08203C10.5781 3.48828 10.5156 3.88281 10.4297 4.26562C10.2422 5.125 9.98047 5.77344 9.64453 6.21094C9.35547 4.70312 8.98047 3.625 8.51953 2.97656C8.03516 2.32031 7.40234 1.99219 6.62109 1.99219C5.84766 1.99219 5.24219 2.14063 4.80469 2.4375C4.36719 2.73437 4.03125 3.125 3.79688 3.60938C3.40625 4.41406 3.21094 5.60156 3.21094 7.17188C3.21094 8.73438 3.38672 10.168 3.73828 11.4727C4.09766 12.7695 4.60547 13.8867 5.26172 14.8242C6.64453 16.8164 8.44531 17.8125 10.6641 17.8125C10.6328 18.1641 10.4492 18.4688 10.1133 18.7266C10.0117 18.8047 9.90234 18.8516 9.78516 18.8672C6.94922 18.8672 4.63672 17.8242 2.84766 15.7383C0.949219 13.5195 0 10.4961 0 6.66797C0 4.66797 0.585938 3.16406 1.75781 2.15625C2.79688 1.26562 4.21875 0.820312 6.02344 0.820312L7.98047 0.84375C8.90234 0.84375 9.55078 0.710938 9.92578 0.445312C10.082 0.328125 10.2227 0.179687 10.3477 0ZM15.9141 13.3828C15.9141 15.9141 16.0664 17.7031 16.3711 18.75H12.9141C13.1328 17.9922 13.2695 17.0977 13.3242 16.0664C13.4414 13.5742 13.5 11.6406 13.5 10.2656C13.5 8.89062 13.4961 7.96875 13.4883 7.5C13.4805 7.02344 13.4727 6.54688 13.4648 6.07031C13.418 4.375 13.3359 3.30859 13.2188 2.87109C13.1094 2.42578 13.0039 2.10547 12.9023 1.91016C12.8086 1.70703 12.6992 1.52344 12.5742 1.35938L12.1875 0.820312H16.4648C16.2461 1.60937 16.1172 2.36719 16.0781 3.09375C16.0469 3.8125 16.0195 4.44922 15.9961 5.00391C15.9805 5.55859 15.9648 6.13672 15.9492 6.73828C15.9336 7.73828 15.9258 8.92969 15.9258 10.3125L15.9141 13.3828ZM24.4336 7.85156C23.7305 7.85156 23.2227 8.20312 22.9102 8.90625C22.6055 9.60938 22.4531 10.793 22.4531 12.457C22.4531 16.0273 23.1133 17.8125 24.4336 17.8125C25.1367 17.8125 25.6406 17.3359 25.9453 16.3828C26.2578 15.4297 26.4141 14.1211 26.4141 12.457C26.4141 10.793 26.2578 9.60938 25.9453 8.90625C25.6406 8.20312 25.1367 7.85156 24.4336 7.85156ZM19.5 12.0117C19.5 8.45703 21.1445 6.67969 24.4336 6.67969C27.7227 6.67969 29.3672 8.45703 29.3672 12.0117C29.3672 14.168 28.9141 15.875 28.0078 17.1328C27.125 18.3672 25.9336 18.9844 24.4336 18.9844C22.9336 18.9844 21.7422 18.3672 20.8594 17.1328C19.9531 15.875 19.5 14.168 19.5 12.0117ZM35.6367 2.22656C35.4727 2.82812 35.3906 3.55078 35.3906 4.39453C35.3906 5.23047 35.4062 5.76562 35.4375 6C35.4766 6.23438 35.5352 6.42188 35.6133 6.5625C35.7617 6.79688 36.0508 6.91406 36.4805 6.91406H39.6211C39.6211 7.35156 39.5156 7.6875 39.3047 7.92188C38.9219 8.34375 38.4531 8.55469 37.8984 8.55469C37.625 8.55469 37.3828 8.51562 37.1719 8.4375C36.7891 8.28125 36.4922 8.20312 36.2812 8.20312C36.0703 8.20312 35.8984 8.24609 35.7656 8.33203C35.6328 8.41016 35.5273 8.52734 35.4492 8.68359C35.3086 8.96484 35.2383 9.57812 35.2383 10.5234C35.2383 11.4688 35.2656 12.4375 35.3203 13.4297C35.3828 14.4219 35.5312 15.2539 35.7656 15.9258C36 16.5898 36.3555 17.0898 36.832 17.4258C37.3086 17.7617 37.9648 17.9297 38.8008 17.9297C38.8008 18.1719 38.6367 18.4609 38.3086 18.7969C38.2227 18.8906 38.1484 18.9531 38.0859 18.9844C36.7031 18.9844 35.668 18.8203 34.9805 18.4922C34.1914 18.1016 33.6289 17.4062 33.293 16.4062C32.957 15.3906 32.7891 13.8867 32.7891 11.8945C32.7891 10.1523 32.7422 9.125 32.6484 8.8125C32.5547 8.49219 32.4688 8.28125 32.3906 8.17969C32.2969 8.0625 32.0703 7.91797 31.7109 7.74609C32.1953 7.37891 32.6758 6.69531 33.1523 5.69531L33.7383 4.46484C34.1523 3.52734 34.5039 2.92188 34.793 2.64844C35.0898 2.36719 35.3711 2.22656 35.6367 2.22656ZM47.7539 18.75C48.1133 17.5156 48.293 15.3945 48.293 12.3867C48.293 11.1289 48.2266 10.293 48.0938 9.87891C47.9609 9.45703 47.793 9.15234 47.5898 8.96484C47.3945 8.76953 47.1289 8.67188 46.793 8.67188C46.4648 8.67188 46.1641 8.73438 45.8906 8.85938C45.625 8.98438 45.3867 9.14844 45.1758 9.35156C44.7773 9.72656 44.4531 10.2266 44.2031 10.8516V13.0898C44.2031 15.2852 44.2461 16.6445 44.332 17.168C44.4336 17.8555 44.5391 18.3828 44.6484 18.75H41.1914C41.3789 18.0938 41.5039 17.2227 41.5664 16.1367C41.707 13.418 41.7773 11.418 41.7773 10.1367C41.7773 8.84766 41.7734 7.96875 41.7656 7.5C41.7578 7.02344 41.7461 6.55078 41.7305 6.08203C41.6914 4.37891 41.6133 3.3125 41.4961 2.88281C41.3867 2.44531 41.2812 2.12891 41.1797 1.93359C41.0859 1.73047 40.9805 1.54688 40.8633 1.38281L40.4648 0.832031H44.7422C44.5234 1.62109 44.3945 2.35547 44.3555 3.03516C44.3242 3.71484 44.3008 4.26953 44.2852 4.69922C44.2695 5.12109 44.2539 5.56641 44.2383 6.03516C44.2148 7.12891 44.2031 8.09375 44.2031 8.92969C44.8203 7.89062 45.6367 7.20312 46.6523 6.86719C47.0117 6.74219 47.4141 6.67969 47.8594 6.67969C48.3047 6.67969 48.707 6.77734 49.0664 6.97266C49.4336 7.16016 49.7383 7.42969 49.9805 7.78125C50.4805 8.49219 50.7305 9.46484 50.7305 10.6992V11.9531C50.7305 14.3438 50.7617 15.8438 50.8242 16.4531C50.8945 17.0547 50.9414 17.4531 50.9648 17.6484C51.0195 17.9922 51.1016 18.3594 51.2109 18.75H47.7539ZM54.6094 18.75C54.9688 17.5156 55.1484 15.3945 55.1484 12.3867C55.1484 10.2461 54.9609 8.78516 54.5859 8.00391C54.4922 7.80859 54.3867 7.625 54.2695 7.45312L53.8828 6.91406H57.9492C57.832 7.375 57.7539 7.74219 57.7148 8.01562L57.6328 8.71875C58.5391 7.35938 59.6914 6.67969 61.0898 6.67969C62.4961 6.67969 63.4062 7.44141 63.8203 8.96484C64.4375 7.91016 65.2539 7.21094 66.2695 6.86719C66.6289 6.74219 67.0312 6.67969 67.4766 6.67969C67.9297 6.67969 68.3359 6.77734 68.6953 6.97266C69.0625 7.16016 69.3711 7.42969 69.6211 7.78125C70.1133 8.49219 70.3594 9.46484 70.3594 10.6992V11.9531C70.3594 14.3438 70.3906 15.8438 70.4531 16.4531C70.5234 17.0547 70.5742 17.4531 70.6055 17.6484C70.6523 17.9922 70.7305 18.3594 70.8398 18.75H67.3828C67.7266 17.5703 67.8984 15.4492 67.8984 12.3867C67.8984 11.1445 67.8359 10.3125 67.7109 9.89062C67.5859 9.46094 67.4219 9.15234 67.2188 8.96484C67.0234 8.76953 66.7539 8.67188 66.4102 8.67188C65.4023 8.67188 64.6016 9.26562 64.0078 10.4531V11.9531C64.0078 14.3438 64.0391 15.8438 64.1016 16.4531C64.1719 17.0547 64.2227 17.4531 64.2539 17.6484C64.3008 17.9922 64.3789 18.3594 64.4883 18.75H61.0312C61.3828 17.5469 61.5586 15.4258 61.5586 12.3867C61.5586 11.1133 61.4961 10.2734 61.3711 9.86719C61.2461 9.45312 61.0859 9.15234 60.8906 8.96484C60.6953 8.76953 60.4258 8.67188 60.082 8.67188C59.7461 8.67188 59.4414 8.73828 59.168 8.87109C58.8945 9.00391 58.6484 9.17969 58.4297 9.39844C58.0156 9.80469 57.6914 10.3281 57.457 10.9688C57.4414 11.1953 57.4336 11.4297 57.4336 11.6719V12.3867C57.4336 15.3945 57.6133 17.5156 57.9727 18.75H54.6094ZM63.6211 11.4844L63.5742 11.6953L63.6211 11.4844ZM82.418 12.4922L82.3828 14.7422C82.3828 16.1406 82.5117 17.0938 82.7695 17.6016C82.9258 17.9062 83.1094 18.1406 83.3203 18.3047L83.8711 18.75H80.4727L80.1094 17.3906C79.2266 18.4531 77.9688 18.9844 76.3359 18.9844C75.4062 18.9844 74.6562 18.6719 74.0859 18.0469C73.5859 17.4844 73.3359 16.8203 73.3359 16.0547C73.3359 15.2891 73.5156 14.6211 73.875 14.0508C74.2422 13.4805 74.7227 13.0078 75.3164 12.6328C76.4883 11.9062 77.9609 11.5273 79.7344 11.4961V11.3672C79.7344 9.46875 79.4414 8.35547 78.8555 8.02734C78.6445 7.91016 78.3711 7.85156 78.0352 7.85156C77.707 7.85156 77.3789 7.96094 77.0508 8.17969C76.7227 8.39844 76.4258 8.67969 76.1602 9.02344C75.6289 9.71875 75.25 10.5391 75.0234 11.4844C74.3281 11.0703 73.9805 10.2773 73.9805 9.10547C73.9805 8.62891 74.043 8.09375 74.168 7.5C74.4648 7.5 74.7461 7.45703 75.0117 7.37109L75.9141 7.08984C76.7969 6.81641 77.6602 6.67969 78.5039 6.67969C79.3477 6.67969 80.0195 6.80469 80.5195 7.05469C81.0273 7.30469 81.4219 7.67578 81.7031 8.16797C82.1797 9.00391 82.418 10.4453 82.418 12.4922ZM75.8672 16.2891C75.8672 16.7734 75.9766 17.1484 76.1953 17.4141C76.4219 17.6797 76.7031 17.8125 77.0391 17.8125C77.375 17.8125 77.6992 17.7266 78.0117 17.5547C78.3242 17.375 78.6055 17.1328 78.8555 16.8281C79.4414 16.1328 79.7344 15.3164 79.7344 14.3789V12.6445C78.6406 12.7461 77.7383 13.1094 77.0273 13.7344C76.2539 14.4062 75.8672 15.2578 75.8672 16.2891ZM85.9102 18.75C86.2695 17.5156 86.4492 15.3945 86.4492 12.3867C86.4492 10.2461 86.2773 8.78516 85.9336 8.00391C85.793 7.68359 85.543 7.32031 85.1836 6.91406H89.3438C89.2031 7.40625 89.0898 8.08203 89.0039 8.94141C89.7383 8.01953 90.7617 7.36719 92.0742 6.98438C92.6367 6.82031 93.0469 6.5625 93.3047 6.21094C93.5625 6.82812 93.6914 7.35938 93.6914 7.80469C93.6914 8.25 93.668 8.66406 93.6211 9.04688C93.5742 9.42188 93.5039 9.78906 93.4102 10.1484C93.207 10.9219 92.9375 11.5234 92.6016 11.9531C92.3125 10.4297 91.8633 9.53906 91.2539 9.28125C90.5508 8.97656 89.8633 9.39062 89.1914 10.5234C89.0508 10.7578 88.9336 11.0078 88.8398 11.2734C88.832 11.4531 88.8281 11.6367 88.8281 11.8242C88.8281 12.0117 88.8281 12.1992 88.8281 12.3867C88.8281 15.3945 89.0078 17.5156 89.3672 18.75H85.9102ZM98.707 2.22656C98.543 2.82812 98.4609 3.55078 98.4609 4.39453C98.4609 5.23047 98.4766 5.76562 98.5078 6C98.5469 6.23438 98.6055 6.42188 98.6836 6.5625C98.832 6.79688 99.1211 6.91406 99.5508 6.91406H102.691C102.691 7.35156 102.586 7.6875 102.375 7.92188C101.992 8.34375 101.523 8.55469 100.969 8.55469C100.695 8.55469 100.453 8.51562 100.242 8.4375C99.8594 8.28125 99.5625 8.20312 99.3516 8.20312C99.1406 8.20312 98.9688 8.24609 98.8359 8.33203C98.7031 8.41016 98.5977 8.52734 98.5195 8.68359C98.3789 8.96484 98.3086 9.57812 98.3086 10.5234C98.3086 11.4688 98.3359 12.4375 98.3906 13.4297C98.4531 14.4219 98.6016 15.2539 98.8359 15.9258C99.0703 16.5898 99.4258 17.0898 99.9023 17.4258C100.379 17.7617 101.035 17.9297 101.871 17.9297C101.871 18.1719 101.707 18.4609 101.379 18.7969C101.293 18.8906 101.219 18.9531 101.156 18.9844C99.7734 18.9844 98.7383 18.8203 98.0508 18.4922C97.2617 18.1016 96.6992 17.4062 96.3633 16.4062C96.0273 15.3906 95.8594 13.8867 95.8594 11.8945C95.8594 10.1523 95.8125 9.125 95.7188 8.8125C95.625 8.49219 95.5391 8.28125 95.4609 8.17969C95.3672 8.0625 95.1406 7.91797 94.7812 7.74609C95.2656 7.37891 95.7461 6.69531 96.2227 5.69531L96.8086 4.46484C97.2227 3.52734 97.5742 2.92188 97.8633 2.64844C98.1602 2.36719 98.4414 2.22656 98.707 2.22656Z" fill="black"/>
</svg>

<svg width="103" height="19" fill="none" xmlns="http://www.w3.org/2000/svg"><path d="M10.348 0c.226.32.34.813.34 1.477 0 .656-.024 1.191-.07 1.605-.04.406-.102.8-.188 1.184-.188.859-.45 1.507-.785 1.945-.29-1.508-.665-2.586-1.125-3.234-.485-.657-1.118-.985-1.899-.985-.773 0-1.379.149-1.816.446a2.934 2.934 0 00-1.008 1.171c-.39.805-.586 1.993-.586 3.563 0 1.562.176 2.996.527 4.3.36 1.298.867 2.415 1.524 3.352 1.383 1.992 3.183 2.989 5.402 2.989-.031.351-.215.656-.55.914a.68.68 0 01-.329.14c-2.836 0-5.148-1.043-6.937-3.129C.949 13.52 0 10.496 0 6.668c0-2 .586-3.504 1.758-4.512C2.797 1.266 4.218.82 6.023.82L7.98.844c.922 0 1.57-.133 1.946-.399.156-.117.297-.265.422-.445zm5.566 13.383c0 2.531.152 4.32.457 5.367h-3.457c.219-.758.356-1.652.41-2.684.117-2.492.176-4.425.176-5.8s-.004-2.297-.012-2.766l-.023-1.43c-.047-1.695-.13-2.761-.246-3.199-.11-.445-.215-.766-.317-.96a2.93 2.93 0 00-.328-.552L12.188.82h4.277a10.65 10.65 0 00-.387 2.274l-.082 1.91-.047 1.734c-.015 1-.023 2.192-.023 3.574l-.012 3.07zm8.52-5.531c-.704 0-1.211.351-1.524 1.054-.305.703-.457 1.887-.457 3.551 0 3.57.66 5.355 1.98 5.355.704 0 1.208-.476 1.512-1.43.313-.952.47-2.26.47-3.925 0-1.664-.157-2.848-.47-3.55-.304-.704-.808-1.055-1.511-1.055zm-4.934 4.16c0-3.555 1.645-5.332 4.934-5.332s4.933 1.777 4.933 5.332c0 2.156-.453 3.863-1.36 5.12-.882 1.235-2.073 1.852-3.573 1.852s-2.692-.617-3.575-1.851c-.906-1.258-1.359-2.965-1.359-5.121zm16.137-9.785c-.164.601-.246 1.324-.246 2.168 0 .835.015 1.37.047 1.605.039.234.097.422.175.563.149.234.438.351.867.351h3.141c0 .438-.105.774-.316 1.008a1.827 1.827 0 01-1.407.633 2.11 2.11 0 01-.726-.117c-.383-.157-.68-.235-.89-.235a.934.934 0 00-.516.129.819.819 0 00-.317.352c-.14.28-.21.894-.21 1.84 0 .945.027 1.914.081 2.906.063.992.211 1.824.446 2.496.234.664.59 1.164 1.066 1.5.477.336 1.133.504 1.969.504 0 .242-.164.53-.492.867a.852.852 0 01-.223.187c-1.383 0-2.418-.164-3.105-.492-.79-.39-1.352-1.086-1.688-2.086-.336-1.015-.504-2.52-.504-4.511 0-1.743-.047-2.77-.14-3.082-.094-.32-.18-.532-.258-.633-.094-.117-.32-.262-.68-.434.484-.367.965-1.05 1.441-2.05l.586-1.231c.414-.938.766-1.543 1.055-1.817.297-.28.578-.421.844-.421zM47.754 18.75c.36-1.234.539-3.355.539-6.363 0-1.258-.066-2.094-.2-2.508-.132-.422-.3-.727-.503-.914-.196-.195-.461-.293-.797-.293-.328 0-.629.062-.902.187a2.65 2.65 0 00-.715.493c-.399.375-.723.875-.973 1.5v2.238c0 2.195.043 3.555.129 4.078.102.688.207 1.215.316 1.582h-3.457c.188-.656.313-1.527.375-2.613.141-2.719.211-4.719.211-6 0-1.29-.004-2.168-.011-2.637-.008-.477-.02-.95-.035-1.418-.04-1.703-.118-2.77-.235-3.2-.11-.437-.215-.753-.316-.948a3.39 3.39 0 00-.317-.551l-.398-.551h4.277a10.55 10.55 0 00-.386 2.203 177.808 177.808 0 00-.118 3 136.558 136.558 0 00-.035 2.895c.617-1.04 1.434-1.727 2.45-2.063a3.652 3.652 0 011.206-.187c.446 0 .848.097 1.207.293.368.187.672.457.914.808.5.711.75 1.684.75 2.918v1.254c0 2.39.032 3.89.094 4.5l.14 1.195c.056.344.138.711.247 1.102h-3.457zm6.855 0c.36-1.234.54-3.355.54-6.363 0-2.14-.188-3.602-.563-4.383a4.202 4.202 0 00-.316-.55l-.387-.54h4.066c-.117.461-.195.828-.234 1.102l-.082.703c.906-1.36 2.058-2.04 3.457-2.04 1.406 0 2.316.762 2.73 2.286.617-1.055 1.434-1.754 2.45-2.098a3.653 3.653 0 011.207-.187 2.5 2.5 0 011.218.293c.368.187.676.457.926.808.492.711.738 1.684.738 2.918v1.254c0 2.39.032 3.89.094 4.5.07.602.121 1 .153 1.195.046.344.125.711.234 1.102h-3.457c.344-1.18.515-3.3.515-6.363 0-1.242-.062-2.075-.187-2.496-.125-.43-.29-.739-.492-.926-.196-.195-.465-.293-.809-.293-1.008 0-1.808.594-2.402 1.781v1.5c0 2.39.031 3.89.094 4.5.07.602.12 1 .152 1.195.047.344.125.711.234 1.102h-3.457c.352-1.203.528-3.324.528-6.363 0-1.274-.063-2.114-.188-2.52-.125-.414-.285-.715-.48-.902-.196-.195-.465-.293-.809-.293-.336 0-.64.066-.914.2-.273.132-.52.308-.738.526-.414.407-.739.93-.973 1.57-.016.227-.023.462-.023.704v.715c0 3.008.18 5.129.539 6.363h-3.364zm9.012-7.266l-.047.211.047-.21zm18.797 1.008l-.035 2.25c0 1.399.129 2.352.386 2.86.157.304.34.539.551.703l.551.445h-3.398l-.364-1.36c-.882 1.063-2.14 1.594-3.773 1.594-.93 0-1.68-.312-2.25-.937a2.9 2.9 0 01-.75-1.992c0-.766.18-1.434.539-2.004a4.628 4.628 0 011.441-1.418c1.172-.727 2.645-1.106 4.418-1.137v-.129c0-1.898-.293-3.012-.878-3.34-.212-.117-.485-.175-.82-.175-.329 0-.657.109-.985.328-.328.218-.625.5-.89.843-.532.696-.911 1.516-1.138 2.461-.695-.414-1.042-1.207-1.042-2.379 0-.476.062-1.011.187-1.605.297 0 .578-.043.844-.129l.902-.281a8.727 8.727 0 012.59-.41c.844 0 1.515.125 2.015.375.508.25.903.62 1.184 1.113.477.836.715 2.277.715 4.324zm-6.55 3.797c0 .484.109.86.327 1.125.227.266.508.398.844.398.336 0 .66-.085.973-.257.312-.18.594-.422.844-.727.585-.695.878-1.512.878-2.45v-1.733c-1.093.101-1.996.464-2.707 1.09-.773.671-1.16 1.523-1.16 2.554zM85.91 18.75c.36-1.234.54-3.355.54-6.363 0-2.14-.173-3.602-.516-4.383-.141-.32-.391-.684-.75-1.09h4.16c-.14.492-.254 1.168-.34 2.027.734-.921 1.758-1.574 3.07-1.957.563-.164.973-.421 1.23-.773.258.617.387 1.148.387 1.594 0 .445-.023.86-.07 1.242a8.581 8.581 0 01-.21 1.101c-.204.774-.474 1.375-.81 1.805-.288-1.523-.738-2.414-1.347-2.672-.703-.304-1.39.11-2.063 1.242-.14.235-.257.485-.351.75-.008.18-.012.364-.012.551v.563c0 3.008.18 5.129.54 6.363H85.91zM98.707 2.227c-.164.601-.246 1.324-.246 2.168 0 .835.016 1.37.047 1.605.039.234.098.422.176.563.148.234.437.351.867.351h3.14c0 .438-.105.774-.316 1.008a1.827 1.827 0 01-1.406.633c-.274 0-.516-.04-.727-.117-.383-.157-.68-.235-.89-.235a.934.934 0 00-.516.129.82.82 0 00-.317.352c-.14.28-.21.894-.21 1.84 0 .945.027 1.914.082 2.906.062.992.21 1.824.445 2.496.234.664.59 1.164 1.066 1.5.477.336 1.133.504 1.969.504 0 .242-.164.53-.492.867a.846.846 0 01-.223.187c-1.383 0-2.418-.164-3.105-.492-.79-.39-1.352-1.086-1.688-2.086-.336-1.015-.504-2.52-.504-4.511 0-1.743-.046-2.77-.14-3.082-.094-.32-.18-.532-.258-.633-.094-.117-.32-.262-.68-.434.485-.367.965-1.05 1.442-2.05l.586-1.231c.414-.938.765-1.543 1.054-1.817.297-.28.578-.421.844-.421z" fill="#000"/></svg>
